X:140
T:Maid Behind the Bar
R:Reel
M:4/4
L:1/8
K:D
DE|:FAAB AGFD|FAAB A2 de|fBBA Bcde|fdgf edBA|
 |FAAB AGFD|FAAB A2 de|fBBA BcdB|1 AFEF D2 DE:|2 AFEF D2 g2|
 |:fgab afde|fdad fddf|efga beef|gebe geeg|
 |fgaf bfaf|defd efde|fBBA BcdB|1 AFEF D2 g2:|2 AFEF D2 DE|
